SharedPackages/Infrastructure/DesignResourcesKitIcons/Sources/DesignResourcesKitIcons/DesignSystemImages.xcassets/Color/16px/Ai-General-Color-16.imageset/Ai-General-Color-16.svg

<svg width="16" height="16" viewBox="0 0 16 16" fill="none" xmlns="http://www.w3.org/2000/svg">
<g clip-path="url(#clip0_13193_106279)">
<path d="M6.90447 2.46498C6.98197 2.15499 7.24099 2 7.50001 2C7.75903 2 8.01805 2.15499 8.09555 2.46498L8.43902 3.83888C8.89723 5.6717 10.3283 7.10278 12.1611 7.56099L13.535 7.90446C13.8471 7.98249 14.0021 8.24455 14 8.50535C13.9979 8.76258 13.8429 9.01857 13.535 9.09554L12.1611 9.43901C10.3283 9.89722 8.89723 11.3283 8.43902 13.1611L8.09555 14.535C8.01805 14.845 7.75903 15 7.50001 15C7.24099 15 6.98197 14.845 6.90447 14.535L6.561 13.1611C6.10279 11.3283 4.67172 9.89722 2.8389 9.43901L1.465 9.09554C1.15715 9.01857 1.00214 8.76258 1.00002 8.50535C0.997874 8.24455 1.15288 7.98249 1.465 7.90446L2.8389 7.56099C4.67172 7.10278 6.10279 5.6717 6.561 3.83888L6.90447 2.46498Z" fill="#4397E0"/>
<path d="M7.62359 1.00488C8.20179 1.04975 8.79128 1.40843 9.02203 2.07471L9.06597 2.22266L9.40923 3.59619C9.77787 5.07073 10.9293 6.22218 12.4039 6.59082L13.7774 6.93408C14.5953 7.13855 15.0055 7.8531 15.0001 8.51367C14.9946 9.16679 14.5829 9.86453 13.7774 10.0659L12.4039 10.4092C10.9293 10.7778 9.77787 11.9293 9.40923 13.4038L9.06597 14.7773C8.86304 15.5891 8.15693 16 7.50005 16C6.84318 16 6.13707 15.5891 5.93414 14.7773L5.59087 13.4038C5.22224 11.9293 4.07078 10.7778 2.59624 10.4092L1.22271 10.0659C0.417223 9.86455 0.00546949 9.16685 5.34377e-05 8.51367C-0.0053888 7.85305 0.404876 7.13854 1.22271 6.93408L2.59624 6.59082C4.07079 6.22218 5.22224 5.07073 5.59087 3.59619L5.93414 2.22266L5.97808 2.07471C6.2253 1.36086 6.88428 1 7.50005 1L7.62359 1.00488ZM7.50005 2C7.24106 2 6.98188 2.15492 6.90435 2.46484L6.56109 3.83887L6.51519 4.00928C6.01299 5.76006 4.61454 7.11713 2.83892 7.56104L1.4649 7.9043C1.15284 7.98236 0.997905 8.2446 1.00005 8.50537C1.00218 8.76257 1.15711 9.01871 1.4649 9.0957L2.83892 9.43896C4.67175 9.89717 6.10288 11.3283 6.56109 13.1611L6.90435 14.5352C6.97219 14.8064 7.1792 14.9588 7.40337 14.9927L7.50005 15C7.74291 15 7.98591 14.8638 8.07915 14.5913L8.09576 14.5352L8.43902 13.1611C8.88292 11.3855 10.24 9.98706 11.9908 9.48486L12.1612 9.43896L13.5352 9.0957C13.8045 9.02835 13.9569 8.82386 13.9922 8.60156L14.0001 8.50537C14.0021 8.26092 13.866 8.01546 13.5919 7.92139L13.5352 7.9043L12.1612 7.56104C10.3284 7.10283 8.89722 5.67169 8.43902 3.83887L8.09576 2.46484C8.01823 2.15492 7.75905 2 7.50005 2Z" fill="#045EB2"/>
<path d="M13.2958 0.159441C13.3489 -0.0531471 13.6511 -0.0531467 13.7042 0.159441L13.9477 1.13337C14.0608 1.58587 14.4141 1.93918 14.8666 2.05231L15.8406 2.29579C16.0531 2.34894 16.0531 2.65106 15.8406 2.70421L14.8666 2.94769C14.4141 3.06082 14.0608 3.41413 13.9477 3.86663L13.7042 4.84056C13.6511 5.05315 13.3489 5.05315 13.2958 4.84056L13.0523 3.86663C12.9392 3.41413 12.5859 3.06082 12.1334 2.94769L11.1594 2.70421C10.9469 2.65106 10.9469 2.34894 11.1594 2.29579L12.1334 2.05231C12.5859 1.93918 12.9392 1.58587 13.0523 1.13337L13.2958 0.159441Z" fill="#1074CC"/>
</g>
<defs>
<clipPath id="clip0_13193_106279">
<rect width="16" height="16" fill="white"/>
</clipPath>
</defs>
</svg>

<svg fill="none" viewBox="0 0 16 16" xmlns="http://www.w3.org/2000/svg">
  <g clip-path="url(#Ai-General-Color-16_svg__a)">
    <path fill="url(#Ai-General-Color-16_svg__b)" d="M6.904 2.465A.6.6 0 0 1 7.5 2a.6.6 0 0 1 .596.465l.343 1.374a5.116 5.116 0 0 0 3.722 3.722l1.374.343a.6.6 0 0 1 .465.601.6.6 0 0 1-.465.59l-1.374.344a5.116 5.116 0 0 0-3.722 3.722l-.343 1.374A.6.6 0 0 1 7.5 15a.6.6 0 0 1-.596-.465l-.343-1.374A5.116 5.116 0 0 0 2.839 9.44l-1.374-.343A.6.6 0 0 1 1 8.506a.6.6 0 0 1 .465-.602l1.374-.343A5.116 5.116 0 0 0 6.56 3.839l.343-1.374Z"/>
    <path fill="url(#Ai-General-Color-16_svg__c)" d="M7.624 1.005a1.596 1.596 0 0 1 1.398 1.07l.044.148.343 1.373a4.116 4.116 0 0 0 2.995 2.995l1.373.343A1.601 1.601 0 0 1 15 8.514a1.6 1.6 0 0 1-1.223 1.552l-1.373.343a4.116 4.116 0 0 0-2.995 2.995l-.343 1.373A1.6 1.6 0 0 1 7.5 16a1.6 1.6 0 0 1-1.566-1.223l-.343-1.373a4.116 4.116 0 0 0-2.995-2.995l-1.373-.343A1.6 1.6 0 0 1 0 8.514a1.6 1.6 0 0 1 1.223-1.58l1.373-.343a4.116 4.116 0 0 0 2.995-2.995l.343-1.373.044-.148A1.601 1.601 0 0 1 7.5 1l.124.005ZM7.5 2a.6.6 0 0 0-.596.465l-.343 1.374-.046.17A5.116 5.116 0 0 1 2.84 7.561l-1.374.343A.6.6 0 0 0 1 8.505a.6.6 0 0 0 .465.59l1.374.344a5.116 5.116 0 0 1 3.722 3.722l.343 1.374a.596.596 0 0 0 .5.458L7.5 15a.6.6 0 0 0 .58-.409l.016-.056.343-1.374a5.116 5.116 0 0 1 3.552-3.676l.17-.046 1.374-.343a.596.596 0 0 0 .457-.494L14 8.505a.6.6 0 0 0-.408-.584l-.057-.017-1.374-.343A5.116 5.116 0 0 1 8.44 3.839l-.343-1.374A.6.6 0 0 0 7.5 2Z"/>
    <path fill="#3969EF" d="M13.296.16c.053-.213.355-.213.408 0l.244.973c.113.453.466.806.919.92l.974.243c.212.053.212.355 0 .408l-.974.244a1.263 1.263 0 0 0-.92.919l-.243.974c-.053.212-.355.212-.408 0l-.244-.974a1.263 1.263 0 0 0-.919-.92l-.974-.243c-.212-.053-.212-.355 0-.408l.974-.244c.453-.113.806-.466.92-.919l.243-.974Z"/>
  </g>
  <defs>
    <linearGradient id="Ai-General-Color-16_svg__b" x1="7.5" x2="7.5" y1="15" y2="2" gradientUnits="userSpaceOnUse">
      <stop stop-color="#5981F3"/>
      <stop offset="1" stop-color="#A7B7FD"/>
    </linearGradient>
    <linearGradient id="Ai-General-Color-16_svg__c" x1="7.5" x2="7.5" y1="1" y2="16" gradientUnits="userSpaceOnUse">
      <stop stop-color="#557FF3"/>
      <stop offset="1" stop-color="#2B55CA"/>
    </linearGradient>
    <clipPath id="Ai-General-Color-16_svg__a">
      <path fill="#fff" d="M0 0h16v16H0z"/>
    </clipPath>
  </defs>
</svg>
